assets/img/footer_logo.svg

<?xml version="1.0" encoding="UTF-8" standalone="no"?>
<!-- Created with Inkscape (http://www.inkscape.org/) -->

<svg
   width="36.175674mm"
   height="7.4083333mm"
   viewBox="0 0 36.175674 7.4083333"
   version="1.1"
   id="svg1"
   xmlns:inkscape="http://www.inkscape.org/namespaces/inkscape"
   xmlns:sodipodi="http://sodipodi.sourceforge.net/DTD/sodipodi-0.dtd"
   xmlns="http://www.w3.org/2000/svg"
   xmlns:svg="http://www.w3.org/2000/svg">
  <sodipodi:namedview
     id="namedview1"
     pagecolor="#ffffff"
     bordercolor="#000000"
     borderopacity="0.25"
     inkscape:showpageshadow="2"
     inkscape:pageopacity="0.0"
     inkscape:pagecheckerboard="0"
     inkscape:deskcolor="#d1d1d1"
     inkscape:document-units="mm" />
  <defs
     id="defs1">
    <linearGradient
       id="paint0_linear_0_1"
       x1="8.5"
       y1="4.61262e-07"
       x2="24"
       y2="28"
       gradientUnits="userSpaceOnUse">
      <stop
         stop-color="#FF6038"
         id="stop7" />
      <stop
         offset="1"
         stop-color="#FF4415"
         id="stop8" />
    </linearGradient>
  </defs>
  <g
     inkscape:label="Layer 1"
     inkscape:groupmode="layer"
     id="layer1"
     transform="translate(-46.588224,-48.984713)">
    <g
       id="Logo_2"
       transform="matrix(0.26458333,0,0,0.26458333,46.588226,48.984711)">
      <rect
         id="Rectangle 1363"
         width="30"
         height="28"
         rx="8"
         fill="url(#paint0_linear_0_1)"
         x="0"
         y="0"
         style="fill:url(#paint0_linear_0_1)" />
      <path
         id="Ellipse 1165"
         d="m 7,12 c 0,1.8565 0.7375,3.637 2.05025,4.9497 C 10.363,18.2625 12.1435,19 14,19 15.8565,19 17.637,18.2625 18.9497,16.9497 20.2625,15.637 21,13.8565 21,12 Z"
         fill="#fffefe" />
    </g>
    <g
       id="Besnik"
       transform="matrix(0.26458333,0,0,0.26458333,47.309735,48.780915)">
      <path
         d="M 42,25.5496 V 4.23107 h 7.735 c 1.4391,0 2.6783,0.2302 3.7176,0.6906 1.0593,0.44038 1.8688,1.08094 2.4285,1.92167 0.5796,0.82072 0.8694,1.79156 0.8694,2.91254 0,1.02092 -0.2199,1.92162 -0.6596,2.70232 -0.4397,0.7607 -1.0593,1.3612 -1.8588,1.8016 1.0793,0.4204 1.9188,1.0909 2.5184,2.0117 0.5996,0.9008 0.8994,1.9718 0.8994,3.2128 0,1.2411 -0.3198,2.312 -0.9594,3.2128 -0.6395,0.9008 -1.539,1.6014 -2.6982,2.1019 -1.1593,0.5004 -2.5284,0.7506 -4.1074,0.7506 z M 46.3172,7.92428 v 4.89422 h 2.9381 c 0.9794,0 1.7289,-0.2001 2.2486,-0.6005 0.5396,-0.4204 0.8095,-1.0309 0.8095,-1.8316 0,-0.80067 -0.2699,-1.4112 -0.8095,-1.83157 C 50.9842,8.13447 50.2347,7.92428 49.2553,7.92428 Z m 0,13.93212 h 3.3579 c 1.1192,0 1.9787,-0.2402 2.5783,-0.7206 0.6196,-0.4804 0.9294,-1.171 0.9294,-2.0718 0,-0.9008 -0.3098,-1.5914 -0.9294,-2.0718 -0.5996,-0.4805 -1.4591,-0.7207 -2.5783,-0.7207 h -3.3579 z"
         fill="#101010"
         id="path2" />
      <path
         d="m 67.9926,26 c -1.1793,0 -2.2686,-0.2002 -3.2679,-0.6005 -0.9794,-0.4204 -1.8289,-1.0009 -2.5484,-1.7415 -0.7195,-0.7607 -1.2792,-1.6515 -1.6789,-2.6724 -0.3998,-1.0409 -0.5996,-2.1718 -0.5996,-3.3929 0,-1.181 0.1998,-2.282 0.5996,-3.3029 0.3997,-1.0209 0.9494,-1.9016 1.6489,-2.6423 0.7196,-0.7606 1.559,-1.3512 2.5184,-1.77152 0.9594,-0.42037 1.9987,-0.63055 3.118,-0.63055 1.1593,0 2.2086,0.20017 3.148,0.60052 0.9594,0.40035 1.7788,0.97085 2.4584,1.71145 0.6796,0.7407 1.1992,1.6215 1.559,2.6423 0.3797,1.0209 0.5696,2.1619 0.5696,3.423 v 1.0509 H 64.155 c 0.1799,1.1811 0.6096,2.1119 1.2892,2.7925 0.6796,0.6605 1.539,0.9908 2.5783,0.9908 0.7196,0 1.3692,-0.1701 1.9488,-0.5104 0.5996,-0.3403 1.0893,-0.8307 1.469,-1.4713 l 3.7476,1.201 c -0.3597,0.9008 -0.8994,1.6715 -1.6189,2.3121 -0.7196,0.6405 -1.559,1.1409 -2.5184,1.5013 C 70.0912,25.8299 69.0719,26 67.9926,26 Z M 67.7827,12.4883 c -0.9194,0 -1.6989,0.3002 -2.3385,0.9007 -0.6196,0.6006 -1.0293,1.4213 -1.2292,2.4622 h 6.9855 C 71.0406,14.8103 70.6509,13.9896 70.0313,13.389 69.4316,12.7885 68.6821,12.4883 67.7827,12.4883 Z"
         fill="#101010"
         id="path3" />
      <path
         d="m 83.9948,26 c -1.1193,0 -2.1387,-0.1802 -3.0581,-0.5405 -0.8994,-0.3603 -1.6689,-0.8707 -2.3085,-1.5313 -0.6196,-0.6606 -1.0493,-1.4413 -1.2891,-2.342 l 3.7775,-0.8107 c 0.1999,0.6205 0.5597,1.1109 1.0793,1.4712 0.5197,0.3603 1.1393,0.5405 1.8588,0.5405 0.6796,0 1.2392,-0.1501 1.679,-0.4504 0.4397,-0.3002 0.6595,-0.7106 0.6595,-1.2311 0,-0.4403 -0.1998,-0.8007 -0.5996,-1.0809 -0.3797,-0.3003 -1.0193,-0.5305 -1.9188,-0.6906 l -0.8394,-0.1501 c -1.7189,-0.3003 -3.0281,-0.8608 -3.9275,-1.6815 -0.8794,-0.8207 -1.3191,-1.8616 -1.3191,-3.1227 0,-1.0009 0.2598,-1.8816 0.7795,-2.6423 0.5196,-0.7807 1.2392,-1.3912 2.1586,-1.83159 0.9194,-0.44039 1.9787,-0.66058 3.1779,-0.66058 1.0593,0 2.0187,0.18016 2.8782,0.54047 0.8794,0.3403 1.6089,0.8307 2.1886,1.4713 0.5796,0.6405 0.9793,1.4112 1.1992,2.312 l -3.7476,0.7807 c -0.1999,-0.6006 -0.5297,-1.071 -0.9894,-1.4113 -0.4397,-0.3403 -0.9593,-0.5104 -1.559,-0.5104 -0.6196,0 -1.1292,0.1501 -1.529,0.4504 -0.3997,0.3003 -0.5996,0.6806 -0.5996,1.141 0,0.4003 0.1899,0.7406 0.5696,1.0209 0.3998,0.2602 1.0694,0.4704 2.0088,0.6305 l 0.8394,0.1501 c 1.6989,0.3003 2.9981,0.8708 3.8975,1.7115 0.8994,0.8207 1.3491,1.8717 1.3491,3.1528 0,0.7807 -0.1599,1.4913 -0.4797,2.1318 -0.2998,0.6406 -0.7395,1.2011 -1.3191,1.6815 -0.5796,0.4804 -1.2592,0.8507 -2.0387,1.111 C 85.7936,25.8699 84.9342,26 83.9948,26 Z"
         fill="#101010"
         id="path4" />
      <path
         d="M 93.0253,25.5496 V 9.69582 h 3.8675 l 0.1199,2.04178 c 0.4597,-0.7607 1.0893,-1.3612 1.8888,-1.80157 0.8195,-0.4604 1.7485,-0.6906 2.7885,-0.6906 1.159,0 2.168,0.28024 3.028,0.84077 0.879,0.5404 1.559,1.3211 2.038,2.342 0.48,1.0209 0.72,2.2219 0.72,3.6031 v 9.5183 h -4.197 v -8.9778 c 0,-1.101 -0.25,-1.9617 -0.75,-2.5822 -0.5,-0.6406 -1.189,-0.9609 -2.069,-0.9609 -0.6391,0 -1.1987,0.1502 -1.6784,0.4504 -0.4797,0.2803 -0.8595,0.6806 -1.1393,1.2011 -0.2798,0.5204 -0.4197,1.1109 -0.4197,1.7715 v 9.0979 z"
         fill="#101010"
         id="path5" />
      <path
         d="m 115.323,5.40209 c 0,0.4604 -0.109,0.87076 -0.329,1.23107 -0.2,0.36031 -0.49,0.65056 -0.87,0.87076 -0.36,0.20017 -0.759,0.30026 -1.199,0.30026 -0.44,0 -0.849,-0.10009 -1.229,-0.30026 -0.36,-0.2202 -0.65,-0.51045 -0.87,-0.87076 -0.2,-0.36031 -0.299,-0.77067 -0.299,-1.23107 0,-0.4604 0.099,-0.87076 0.299,-1.23107 0.22,-0.36031 0.51,-0.64056 0.87,-0.84073 C 112.076,3.1101 112.485,3 112.925,3 c 0.44,0 0.839,0.1101 1.199,0.33029 0.38,0.20017 0.67,0.48042 0.87,0.84073 0.22,0.36031 0.329,0.77067 0.329,1.23107 z M 110.826,25.5496 V 9.69582 h 4.198 V 25.5496 Z"
         fill="#101010"
         id="path6" />
      <path
         d="M 118.38,25.5496 V 3.15013 h 4.107 V 16.1514 l 5.877,-6.45558 h 4.916 l -6.595,7.02608 7.315,8.8277 h -5.307 l -6.206,-7.8969 v 7.8969 z"
         fill="#101010"
         id="path7" />
    </g>
  </g>
</svg>

<svg width="134" height="28" viewBox="0 0 134 28" fill="none" xmlns="http://www.w3.org/2000/svg">
<rect width="134" height="28" fill="#E5E5E5"/>
<g id="Food delivery landing page" clip-path="url(#clip0_0_1)">
<rect width="1440" height="7220" transform="translate(-135 -47)" fill="white"/>
<g id="Hero">
<g id="Menu">
<g id="Logo">
<g id="Besnik">
<path d="M42 25.5496V4.23107H49.735C51.1741 4.23107 52.4133 4.46127 53.4526 4.92167C54.5119 5.36205 55.3214 6.00261 55.8811 6.84334C56.4607 7.66406 56.7505 8.6349 56.7505 9.75588C56.7505 10.7768 56.5306 11.6775 56.0909 12.4582C55.6512 13.2189 55.0316 13.8194 54.2321 14.2598C55.3114 14.6802 56.1509 15.3507 56.7505 16.2715C57.3501 17.1723 57.6499 18.2433 57.6499 19.4843C57.6499 20.7254 57.3301 21.7963 56.6905 22.6971C56.051 23.5979 55.1515 24.2985 53.9923 24.799C52.833 25.2994 51.4639 25.5496 49.8849 25.5496H42ZM46.3172 7.92428V12.8185H49.2553C50.2347 12.8185 50.9842 12.6184 51.5039 12.218C52.0435 11.7976 52.3134 11.1871 52.3134 10.3864C52.3134 9.58573 52.0435 8.9752 51.5039 8.55483C50.9842 8.13447 50.2347 7.92428 49.2553 7.92428H46.3172ZM46.3172 21.8564H49.6751C50.7943 21.8564 51.6538 21.6162 52.2534 21.1358C52.873 20.6554 53.1828 19.9648 53.1828 19.064C53.1828 18.1632 52.873 17.4726 52.2534 16.9922C51.6538 16.5117 50.7943 16.2715 49.6751 16.2715H46.3172V21.8564Z" fill="#101010"/>
<path d="M67.9926 26C66.8133 26 65.724 25.7998 64.7247 25.3995C63.7453 24.9791 62.8958 24.3986 62.1763 23.658C61.4568 22.8973 60.8971 22.0065 60.4974 20.9856C60.0976 19.9447 59.8978 18.8138 59.8978 17.5927C59.8978 16.4117 60.0976 15.3107 60.4974 14.2898C60.8971 13.2689 61.4468 12.3882 62.1463 11.6475C62.8659 10.8869 63.7053 10.2963 64.6647 9.87598C65.6241 9.45561 66.6634 9.24543 67.7827 9.24543C68.942 9.24543 69.9913 9.4456 70.9307 9.84595C71.8901 10.2463 72.7095 10.8168 73.3891 11.5574C74.0687 12.2981 74.5883 13.1789 74.9481 14.1997C75.3278 15.2206 75.5177 16.3616 75.5177 17.6227V18.6736H64.155C64.3349 19.8547 64.7646 20.7855 65.4442 21.4661C66.1238 22.1266 66.9832 22.4569 68.0225 22.4569C68.7421 22.4569 69.3917 22.2868 69.9713 21.9465C70.5709 21.6062 71.0606 21.1158 71.4403 20.4752L75.1879 21.6762C74.8282 22.577 74.2885 23.3477 73.569 23.9883C72.8494 24.6288 72.01 25.1292 71.0506 25.4896C70.0912 25.8299 69.0719 26 67.9926 26ZM67.7827 12.4883C66.8633 12.4883 66.0838 12.7885 65.4442 13.389C64.8246 13.9896 64.4149 14.8103 64.215 15.8512H71.2005C71.0406 14.8103 70.6509 13.9896 70.0313 13.389C69.4316 12.7885 68.6821 12.4883 67.7827 12.4883Z" fill="#101010"/>
<path d="M83.9948 26C82.8755 26 81.8561 25.8198 80.9367 25.4595C80.0373 25.0992 79.2678 24.5888 78.6282 23.9282C78.0086 23.2676 77.5789 22.4869 77.3391 21.5862L81.1166 20.7755C81.3165 21.396 81.6763 21.8864 82.1959 22.2467C82.7156 22.607 83.3352 22.7872 84.0547 22.7872C84.7343 22.7872 85.2939 22.6371 85.7337 22.3368C86.1734 22.0366 86.3932 21.6262 86.3932 21.1057C86.3932 20.6654 86.1934 20.305 85.7936 20.0248C85.4139 19.7245 84.7743 19.4943 83.8748 19.3342L83.0354 19.1841C81.3165 18.8838 80.0073 18.3233 79.1079 17.5026C78.2285 16.6819 77.7888 15.641 77.7888 14.3799C77.7888 13.379 78.0486 12.4983 78.5683 11.7376C79.0879 10.9569 79.8075 10.3464 80.7269 9.90601C81.6463 9.46562 82.7056 9.24543 83.9048 9.24543C84.9641 9.24543 85.9235 9.42559 86.783 9.7859C87.6624 10.1262 88.3919 10.6166 88.9716 11.2572C89.5512 11.8977 89.9509 12.6684 90.1708 13.5692L86.4232 14.3499C86.2233 13.7493 85.8935 13.2789 85.4338 12.9386C84.9941 12.5983 84.4745 12.4282 83.8748 12.4282C83.2552 12.4282 82.7456 12.5783 82.3458 12.8786C81.9461 13.1789 81.7462 13.5592 81.7462 14.0196C81.7462 14.4199 81.9361 14.7602 82.3158 15.0405C82.7156 15.3007 83.3852 15.5109 84.3246 15.671L85.164 15.8211C86.8629 16.1214 88.1621 16.6919 89.0615 17.5326C89.9609 18.3533 90.4106 19.4043 90.4106 20.6854C90.4106 21.4661 90.2507 22.1767 89.9309 22.8172C89.6311 23.4578 89.1914 24.0183 88.6118 24.4987C88.0322 24.9791 87.3526 25.3494 86.5731 25.6097C85.7936 25.8699 84.9342 26 83.9948 26Z" fill="#101010"/>
<path d="M93.0253 25.5496V9.69582H96.8928L97.0127 11.7376C97.4724 10.9769 98.102 10.3764 98.9015 9.93603C99.721 9.47563 100.65 9.24543 101.69 9.24543C102.849 9.24543 103.858 9.52567 104.718 10.0862C105.597 10.6266 106.277 11.4073 106.756 12.4282C107.236 13.4491 107.476 14.6501 107.476 16.0313V25.5496H103.279V16.5718C103.279 15.4708 103.029 14.6101 102.529 13.9896C102.029 13.349 101.34 13.0287 100.46 13.0287C99.8209 13.0287 99.2613 13.1789 98.7816 13.4791C98.3019 13.7594 97.9221 14.1597 97.6423 14.6802C97.3625 15.2006 97.2226 15.7911 97.2226 16.4517V25.5496H93.0253Z" fill="#101010"/>
<path d="M115.323 5.40209C115.323 5.86249 115.214 6.27285 114.994 6.63316C114.794 6.99347 114.504 7.28372 114.124 7.50392C113.764 7.70409 113.365 7.80418 112.925 7.80418C112.485 7.80418 112.076 7.70409 111.696 7.50392C111.336 7.28372 111.046 6.99347 110.826 6.63316C110.626 6.27285 110.527 5.86249 110.527 5.40209C110.527 4.94169 110.626 4.53133 110.826 4.17102C111.046 3.81071 111.336 3.53046 111.696 3.33029C112.076 3.1101 112.485 3 112.925 3C113.365 3 113.764 3.1101 114.124 3.33029C114.504 3.53046 114.794 3.81071 114.994 4.17102C115.214 4.53133 115.323 4.94169 115.323 5.40209ZM110.826 25.5496V9.69582H115.024V25.5496H110.826Z" fill="#101010"/>
<path d="M118.38 25.5496V3.15013H122.487V16.1514L128.364 9.69582H133.28L126.685 16.7219L134 25.5496H128.693L122.487 17.6527V25.5496H118.38Z" fill="#101010"/>
</g>
<g id="Logo_2">
<rect id="Rectangle 1363" width="30" height="28" rx="8" fill="url(#paint0_linear_0_1)"/>
<path id="Ellipse 1165" d="M7 12C7 13.8565 7.7375 15.637 9.05025 16.9497C10.363 18.2625 12.1435 19 14 19C15.8565 19 17.637 18.2625 18.9497 16.9497C20.2625 15.637 21 13.8565 21 12L7 12Z" fill="#FFFEFE"/>
</g>
</g>
</g>
</g>
</g>
<defs>
<linearGradient id="paint0_linear_0_1" x1="8.5" y1="4.61262e-07" x2="24" y2="28" gradientUnits="userSpaceOnUse">
<stop stop-color="#FF6038"/>
<stop offset="1" stop-color="#FF4415"/>
</linearGradient>
<clipPath id="clip0_0_1">
<rect width="1440" height="7220" fill="white" transform="translate(-135 -47)"/>
</clipPath>
</defs>
</svg>
